X: 29053
T: Neil Gow's Lamentation For James Moray Esq. Of Abercairny
R: strathspey
M: 4/4
K: Gmajor
|:B<A|G3 B D3 G|EG- G2 D3 G|A3 B c>BA<G|E4- E2 E>F|
G3 B D3 G|E<G- G2 D2 g/f/e|d3 G d>cB<A|G6:|
e2|d3 e/f/ g3 d|e2 d2 g3 B|c>Bc<a B>AB<g|A4- A2 c/B/A|
G3 B D3 G|E<G- G2 D2 ge|d2 G2 d>cB<A|G3 D GABc|
d2 ef g2 d2|e3 d g3 B|c>Bc<a B>^AB<g|A4- A3 B|
cedc BdcB|A>cBA GBAG|FA (3GFE DEDB|G6||

